X: 21803
T: King, The
R: jig
M: 6/8
K: Gmajor
G2 G AGA|Bcd efg|G2 G AGA|BGE E2 D|
G2 G AGA|Bcd efg|DcB AGA|BGG G2:|
gfg efg|fdd def|gfg aga|bge e2 f|
gfg aga|bge efg|dcB cBA|BGG G2:|
DGG BGG|AGG BGG|efg dBG|AEE EFE|
DGG BGG|AGG BGG|efg dBG|AGG G2:|
efg fBB|bag fBB|eBB fBB|gfe ^dBB|
efg fBB|bag fBB|efg fe^d|e3- e2:|

